X:128
T:My Darling Asleep
R:jig
M:6/8
L:1/8
K:D
fdd cAA | BGG A2G | FAA def | gfg eag |
fdd cAA | BGG A2G | FAA def | gec d3 :|
|: FAA BAG | FAA BAG | FAA def | gfg eag |
fdd cAA | BGG A2G | FAA def | gec d3 :|

%%newpage
%%scale .7
%%staffsep 35

